X:1
T:Ego flos campi
T:Jacob Clemens non Papa (1510 - 1556) From Premier recueil desfleurs produictes de la divine musique a trois parties Louvain, 1560 edit BMarble
T:Ego flos campi
T:Copyright © 2016 by The Choral Public Domain Library. Edition may be freely distributed, duplicated, performed or recorded.
T:Copyright © 2016 by The Choral Public Domain Library. Edition may be freely distributed, duplicated, performed or recorded.
T:Copyright © 2016 by The Choral Public Domain Library. Edition may be freely distributed, duplicated, performed or recorded.
T:Copyright © 2016 by The Choral Public Domain Library. Edition may be freely distributed, duplicated, performed or recorded.
T:Copyright © 2016 by The Choral Public Domain Library. Edition may be freely distributed, duplicated, performed or recorded.
T:Copyright © 2016 by The Choral Public Domain Library. Edition may be freely distributed, duplicated, performed or recorded.
T:Copyright © 2016 by The Choral Public Domain Library. Edition may be freely distributed, duplicated, performed or recorded.
T:Copyright © 2016 by The Choral Public Domain Library. Edition may be freely distributed, duplicated, performed or recorded.
T:Copyright © 2016 by The Choral Public Domain Library. Edition may be freely distributed, duplicated, performed or recorded.
T:Copyright © 2016 by The Choral Public Domain Library. Edition may be freely distributed, duplicated, performed or recorded.
T:Copyright © 2016 by The Choral Public Domain Library. Edition may be freely distributed, duplicated, performed or recorded.
T:Copyright © 2016 by The Choral Public Domain Library. Edition may be freely distributed, duplicated, performed or recorded.
C:Jacob Clemens non Papa
C:(1510 - 1556)
C:From Premier recueil desfleurs produictes
C:de la divine musique a trois parties
C:Louvain, 1560
C:edit BMarble
Z:Copyright © 2016 by The Choral Public Domain Library. Edition may be freely distributed, duplicated, performed or recorded.
%%score [ 1 2 3 ]
L:1/8
Q:1/4=92
M:2/2
K:C
V:1 treble nm="Soprano" snm="S."
V:2 treble nm="Alto" snm="A."
V:3 treble-8 transpose=-12 nm="Tenor" snm="T."
V:1
"^Song of Songs 2:1-3a:  I am the flower of the field, and the lily of the valleys.As the lily among thorns, so is my love among the sons.As the apple tree among the trees of the woods, so is my beloved among the sons." z8 | %1
w: |
 z8 | z8 | z8 | G4 G2 E2 | A4 G4 | z2 G2 G2 A2 | F2 G2 A2 A2 | (G3 F E2) (DC | D2) (E3 D C2-) | %10
w: |||E- go flos|cam- pi|et li- li-|um con- val- li-|um, _ _ con- *|* val- * *|
 C2 B,2 C4- | C4 z2 C2 | C2 D2 B,2 C2 | D2 E2 D2 G2 | G2 A2 F2 G2 | A2 A2 G4 | C4 CDEF | %17
w: * li- um,|_ et|li- li- um con-|val- li- um, et|li- li- um con-|val- li- um,|et li- * * *|
 GABG AB c2- | c2 B2 c2 G2- | G2 E2 E4- | E4 z4 | z4 z2 G2- | G2 G2 G2 A2 | G2 F2 E4 | A4 (G3 F | %25
w: * * * * li- * *|* um con- val-|* li- um.|_|Si-|* cut li- li-|um in- ter|spi- nas, _|
 E2 DC D2) G2- | (GF E4 D2) | E2 E4 E2 | D2 E3 C c2 | B2 (A4 G2 | A2 c4) (BA | B8) | z8 | %33
w: _ _ _ _ spi-||nas, si- cut|li- li- um in-|ter spi- *|* * nas, _|_||
 z2 G4 A2 | c2 B2 A2 G2 | (c6 B2) | A2 (G4 F2 | E2) D2 C4 | z4 z2 G2 | A2 c4 B2 | A2 G2 (c3 B | %41
w: sic a-|mi- ca me- a|in- *|ter fi- *|* li- as,|sic|a- mi- ca|me- a in- *|
 A2) G2 (FEDC) | D4 E4- | E8 | z8 | z4 z2 G2- | G2 E2 G2 F2 | E2 D2 EFGE | F2 E2 D4 | E8 | z4 G4 | %51
w: * ter li- * * *|li- as.|_||Si-|* cut ma- lus|in- ter li- * * *|gna sil- va-|rum,|sil-|
 C2 (G3 FED | C2) c4 A2 | c2 B2 A2 G2 | G2 F2 E2 D2 | C2 D2 E2 A2 | G2 F2 E2 (DC | D4) E2 G2- | %58
w: va- rum, _ _ _|_ sic di-|le- ctus me- us|in- ter fi- li-|os, sic di- le-|ctus me- us in _|_ ter fi-|
 (G2 F2) E4 | D8 || %60
w: * * li-|os.|
"^Song of Songs 2:3b-5:  I sat down under his shadow, he whom I desired:  and his fruit was sweet to my palate.He brought me into the cellar of wine, he set in order charity in me.Stay me up with flowers, encompass me with apples: because I languish with love." D4 E2 G2- | %61
w: Sub um- bra|
 G2 G2 (F2 E2-) | (E2 DC) D2 G2 | A2 c4 c2 | (!courtesy!_B2 A4 GF) | G4 D4 | E2 G4 G2 | (F2 E4 DC | %68
w: _ il- li- *|* * * us, sub|um- bra il-|li- * * *|us, sub|um- bra il-|li- * * *|
 D4) C4 | z8 | z8 | z2 G4 G2 | G2 G2 F2 E2 | A4 (G3 F | G2) A4 (GF) | E6 (DC) | D2 (G3 ABG | %77
w: * us|||quem de-|si- de- ra- bam|se- di, _|_ de- si- *|de- ra- *|bam, quem _ _ _|
 A2) B2 (AG) c2- | c2 B2 A2 G2- | (GFED) E4 | z8 | z8 | c4 c2 c2 | B4 A2 A2 | c2 c4 B2 | A2 A2 G4 | %86
w: _ de- si- * de-|* ra- bam se-|* * * * di|||et fru- ctus|e- jus dul-|cis gut- tu-|ri me- o,|
 z8 | z2 G2 G2 G2 | F4 E2 E2 | G2 G2 (G2 F2 | E2 DC D2) D2 | E8 | D2 G4 F2 | G2 G2 _B4 | %94
w: |et fru- ctus|e- jus dul-|cis gut- tu- *|* * * * ri|me-|o. In- tro-|du- xit me|
 A4 z2 G2- | G2 F2 G2 G2 | !courtesy!_B4 A4 | z4 G4- | G2 F2 E2 E2- | E2 D2 (E3 D/C/ | D4) C2 c2- | %101
w: rex, in-|* tro- du- xit|me rex|in|_ cel- lam vi-|* na- ri- * *|* am, in|
 c2 B2 A2 A2- | A2 G4 !courtesy!^F2 | G4 z4 | z4 D4 | E2 G4 =F2 | E2 D2 F2 G2 | E4 D4 | z4 z2 G2 | %109
w: _ cel- lam vi-|* na- ri-|am|or-|di- na- vit|in me ca- ri-|ta- tem,|or-|
 A2 c4 B2 | A2 G2 B2 c2 | A4 G4- | G4 z4 | z4 G2 G2- | GG G2 A2 B2 | c4 z2 c2 | c2 B2 A4 | (G6 FE | %118
w: di- na- vit|in me ca- ri-|ta- tem.|_|Ful- ci-|* te me flo- ri-|bus, sti-|pa- te me|ma- * *|
 F4) E4 | z8 | C2 C3 C C2 | D2 E2 F2 F2 | F2 E2 D2 F2- | (FEDC D4) | C2 G2 c4- | c2 B2 A2 G2 | %126
w: * lis,||ful- ci- te me|flo- ri- bus, sti-|pa- te me ma-||lis qui- a|_ a- mo- re|
 (A2 G2 F2) E2 | A4 (G3 A | B2 c4) B2 | c4 G4 | c6 B2 | (A2 G2) F2 E2 | D4 E4- | E4 G4 | c6 B2 | %135
w: lan- * * gue-|o, lan- *|* * gue-|o, qui-|a a-|mo- * re lan-|gue- o,|_ qui-|a a-|
 A2 G2 F2 F2 | E8 |] %137
w: mo- re lan- gue-|o.|
V:2
 G4 G2 E2 | A4 G4 | z2 G2 G2 A2 | (F3 G A2) G2 | (E3 D EF G2-) | G2 F2 D2 E2- | (E2 DC D2) C2- | %7
w: E- go flos|cam- pi|et li- li-|um _ _ con-|val- * * * *|* li- um, con-|* * * * val-|
 (CB, E4) D2 | E2 (C4 B,A, | B,4) C4 | D4 E2 G2 | G2 A2 F2 G2 | A2 A2 G2 F2 | G2 G2 (F2 D2 | %14
w: * * * li-|um, con- * *|* val-|li- um, et|li- li- um con-|val- li- um, con-|val- li- um, _|
 E4) z2 E2 | E2 F2 D2 E2 | (F2 E4 DC | E2) D2 (FEDC | D4 C4) | z2 G4 G2 | G2 A2 G2 F2 | E2 D2 E4 | %22
w: _ et|li- li- um con-|val- * * *|* li- um _ _ _|_ _|Si- cut|li- li- um in-|ter spi- nas,|
 z2 E2 D2 E2- | (ED C2) B,2 E2- | E2 D2 E2 C2- | (C2 B,A, B,4) | z8 | G6 G2 | G2 A2 G2 F2 | %29
w: in- ter spi-|* * * nas, in-|* ter spi- nas,|_ _ _ _||si- cut|li- li- um in-|
 G2 (C2 D2 E2-) | (E2 DC E4) | D2 D4 E2 | G2 F2 E2 D2 | E6 E2 | E2 E2 A,2 E2- | (E2 DC D4 | %36
w: ter spi- * *||nas, sic a-|mi- ca me- a|in- ter|fi- li- as, fi-||
 C2) B,2 A,4 | z2 G,2 A,2 C2- | C2 B,2 C2 D2 | E2 C2 D3 E | F2 E4 C2- | CDEC DC C2- | C2 B,2 C4 | %43
w: * li- as,|sic a- mi-|* ca me- a|in- ter fi- *|||* li- as.|
 z2 G4 E2 | G2 F2 E2 D2 | (EFGE F2) E2 | D2 C2 D2 C2- | (C2 B,A, B,3 C | D2) (C4 B,2) | C2 G4 E2 | %50
w: Si- cut|ma- lus in- ter|li- * * * * gna|sil- va- rum, sil-||* va- *|rum, sic di-|
 G2 F2 (E2 D2 | E2) E2 E2 G2 | (F2 E4) D2 | E8 | z4 G4 | E2 G4 F2 | E2 D4 C2- | (C2 B,2) C2 E2- | %58
w: le- ctus me- *|* us in- ter|fi- * li-|os,|sic|di- le- ctus|me- us in|_ _ ter fi-|
 E2 D2 C4- | (C2 B,A, B,4) || z8 | z4 C4 | E2 G4 G2 | (F2 E4 DC | D4) C2 F2- | F2 E2 F2 G2- | %66
w: * li- os.|_ _ _ _||Sub|um- bra il-|li- * * *|* us, sub|_ um- bra il-|
 (GF) E2 D4 | z2 G4 G2 | G2 G2 F2 E2 | (A4 G3 F) | G2 A4 (GF) | E3 C D2 E2- | E2 D2 C2 C2- | %73
w: * * li- us|quem de-|si- de- ra- bam|se- * *|di, quem de- *|si- de- ra- bam|_ se- di, quem|
 C2 C2 C2 C2 | B,2 A,2 D4- | (D2 C4 B,A,) | B,2 (G,A,) (B,CDE) | F2 G2 E2 (DC) | D4 C4- | %79
w: _ de- si- de-|ra- bam se-||di, quem _ de- * * *|si- de- ra bam _|se- di|
 C4 z2 G2 | G2 G2 F4 | E2 E2 G2 G2- | G2 F2 (E3 C | D2) (E4 D2) | E2 G2 G2 G2 | F2 E4 E2 | %86
w: _ et|fru- ctus e-|jus dul- cis gut-|* tu- ri _|_ me- *|o, et fru- ctus|e- jus dul-|
 G2 G4 F2 | (E6 D2 | C2) (D4 C2) | D2 E4 D2- | D2 C4 B,2 | C4 z2 C2- | C2 B,2 C2 D2 | E4 D4 | %94
w: cis gut- tu-|ri _|_ me- *|o, gut- tu-|* ri me-|o. In-|* tro- du- xit|me rex,|
 z2 D4 B,2 | C4 E4 | D2 G4 F2 | E2 E4 D2 | E2 C4 B,2 | A,4 C4 | G,2 G4 F2 | E2 E4 D2 | %102
w: in- tro-|du- xit|me rex in|cel- lam, in|cel- lam vi-|na- ri-|am, in cel-|lam vi- na-|
 (CB,A,G,) A,4 | z2 G,2 A,2 C2- | C2 B,2 A,2 G,2 | B,3 C A,4 | (G,A,B,C D2) B,2 | C3 B, G,2 D2 | %108
w: ri- * * * am|or- di- na-|* vit in me|ca- ri- ta-|tem, _ _ _ _ ca-|ri- ta- tem, or-|
 E2 G2 F2 E2- | E2 C2 (D3 E | F2) E2 (DB, E2-) | E2 D2 E2 E2- | (E2 DC D2) E2 | F2 (G3 FED) | %114
w: di- na- vit in|_ me ca- *|* ri- ta- * *|* tem, in me|_ _ _ _ ca-|ri- ta- * * *|
 E4 z4 | C2 C3 C C2 | D2 E2 F2 F2 | F2 E2 D2 E2- | (E2 D2) E2 G2- | G2 G2 F2 E2 | %120
w: tem.|Ful- ci- te me|flo- ri- bus, sti-|pa- te me ma-|* * lis, sti-|* pa- te me|
 (A2 G4 !courtesy!^F2) | G2 G,2 D2 A,2 | (C3 B, G,2) D2- | (D2 C4 B,2) | C2 (E4 DC | D4) E4 | %126
w: ma- * *|lis, sti- pa- te|me _ _ ma-||lis, ma- * *|* lis|
 z4 C4 | F6 E2 | D2 C2 D2 D2 | E4 z4 | z2 C2 F4- | F2 E2 D2 C2 | C2 B,2 C2 C2 | G6 F2 | %134
w: qui-|a a-|mo- re lan- gue-|o,|qui- a|_ a- mo- re|lan- gue- o, qui-|a a-|
 (E2 D2) C2 D2- | DC C4 B,2 | C8 |] %137
w: mo- * re lan-|* * * gue-|o.|
V:3
 z8 | z8 | c4 c2 A2 | d4 c4- | c4 z2 c2 | c2 d2 B2 c2- | (c2 BA B2) A2- | (AG E2) F4 | E4 G4 | %9
w: ||E- go flos|cam- pi|_ et|li- li- um con-|* * * * val-|* * * li-|um, e-|
 G2 E2 A4 | G4 C4 | E2 F2 D2 E2 | (F4 G2 A2 | B2 c4) B2 | c4 z2 c2 | c2 d2 B2 c2 | A6 A2 | %17
w: g flos cam-|pi et|li- li- um con-|val- * *|* * li-|um, et|li- li- um con-|val- li-|
 (G4 F2) A2 | G2 G2 C4- | C4 c4- | c2 c2 c2 d2 | c2 B2 (A2 G2) | c3 B/A/ B2 c2- | cB A2 G2 E2 | %24
w: um, _ con-|val- li- um.|_ Si-|* cut li- li-|um in- ter _|spi- * * * *||
 F4 E4 | G6 G2 | G2 A2 G2 F2 | E2 CD EFGA | B2 c3 B A2 | G2 (A2 B2) c2 | A4 G4- | G4 z2 G2- | %32
w: * nas,|si- cut|li- li- um in-|ter spi- * * * * *||nas, in- * ter|spi- nas,|_ sic|
 G2 A2 c2 B2 | A2 G2 c3 B | (A2 G2 F2 E2) | A4 G4 | z4 D4 | E2 G4 F2 | E2 D2 A2 B2 | c2 A2 G2 G2 | %40
w: _ a- mi- ca|me- a in- ter|fi- * * *|li- as,|sic|a- mi- ca|me- a in- ter|fi- li- as, sic|
 A2 c3 BAG | F2 E2 (F2 A2) | G4 C4- | C4 z2 c2- | c2 A2 c2 B2 | A2 G2 (ABcA | B2) A2 G2 A2- | %47
w: a- mi- ca me- a|in- ter fi- *|li- as.|_ Si-|* cut ma- lus|in- ter li- * * *|* gna sil- va-|
 (AG F2) E4 | (D2 E2) (F2 G2) | C4 c4- | c2 A2 c2 B2 | A2 G2 c3 B | (AGFE F2) F2 | E4 c4- | %54
w: * * * rum,|sil- * va- *|rum, sic|_ di- le- ctus|me- us in- ter|fi- * * * * li-|os, sic|
 c2 A2 c2 B2 | A2 G2 C2 D2 | (E2 F2 G2) A2 | G4 C4- | C2 D2 E2 F2 | G8 || z8 | G4 A2 c2- | %62
w: _ di- le- ctus|me- us in- ter|fi- * * li-|os, in-|* ter fi- li-|os.||Sub um- bra|
 c2 c2 (B2 c2 | A8) | G2 F4 (ED) | C2 c4 B2 | c4 G4 | A2 c4 c2 | B4 A2 c2- | c2 c2 c2 c2 | %70
w: _ il- li- *||us, sub um- *|bra il- li-|us, sub|um- bra il-|li- us quem|_ de- si- de-|
 B2 A2 (d4 | c3 B/A/) B2 c2- | c2 B2 (A3 G) | F4 (C3 D | E2) F2 (DEFG | A4) G2 G2- | G2 G2 G2 G2 | %77
w: ra- bam se-|* * * di, quem|_ de- si- *|de- ra- *|* bam se- * * *|* di, quem|_ de- si- de-|
 F2 E2 (A4 | G4) C4 | z2 c2 c2 c2 | B4 A2 A2 | c2 c4 B2 | (A3 B c2) A2 | G2 (FE) F4 | E8 | %85
w: ra- bam se-|* di|et fru- ctus|e- jus dul-|cis gut- tu-|ri, _ _ gut-|tu- ri _ me-|o,|
 z2 c2 c2 c2 | B4 A2 A2 | c2 c4 B2 | (A3 G A4) | G2 C2 E2 F2 | G2 A2 G4 | C8 | G4 z4 | z4 G4- | %94
w: et fru- ctus|e- jus dul-|cis gut- tu-|ri _ _|me- o, dul- cid|gut- tu- ri|me-|o.|In-|
 G2 F2 G2 G2 | A4 G4- | G4 z4 | c6 B2 | A2 A2 A2 G2 | (F3 E C2) c2- | c2 B2 A2 A2- | A2 G2 F4 | %102
w: * tro- du- xit|me rex|_|in cel-|lam vi- na- ri-|am, _ _ in|_ cel- lam vi-|* na- ri-|
 E4 z2 D2 | E2 G4 F2 | E2 D2 F2 G2 | (E4 D4) | G4 z2 G2 | A2 c4 B2 | A2 G2 B2 c2 | A4 G4 | %110
w: am or-|di- na- vit|in me ca- ri-|ta- *|tem, or-|di- na- vit|in me ca ri-|ta- tem,|
 z2 G4 E2 | F4 E4 | G2 G3 G G2 | A2 B2 c4 | z2 c2 c2 B2 | (A3 G) A4 | G4 z4 | G2 G3 G G2 | %118
w: ca- ri-|ta- tem.|Ful- ci- te me|flo- ri- bus|sti- pa- te|me _ ma-|lis,|ful- ci- te me|
 A2 B2 c2 c2 | c2 B2 A2 c2- | cBAG A4 | G3 F DEFG | AB c4 !courtesy!_B2 | A4 G4 | C8 | G4 c4- | %126
w: flo- ri- bus, sti-|pa- te me ma-||||* lis,|qui-|a a-|
 (c2 B2) A3 G | F2 F2 C4 | G8 | c6 B2 | (A3 G FE D2-) | D2 E2 F4 | G4 C4 | z2 C2 c4- | %134
w: * * mo- re|lan- gue- o,|qui-|a a-|mo- * * * *|* re lan-|gue- o,|qui- a|
 c2 B2 A2 G2 | (F2 E2) D4 | C8 |] %137
w: _ a- mo- re|lan- * gue-|o.|

